X:1
T:Ye Banks and Braes of Bonnie Doon
C:Tune: Trad Scotland
C:Words: Robert Burns
L:1/4
M:3/4
I:linebreak $
K:G
V:1 treble 
V:1
"A" D |"G" G2 G |"D7" A3/2 G/ A |"G" B d B |"D7" A G A |"G" B3/2 A/ G |"C" G E D |1"Am" D E G | %8
"D7" A2 :|2"D7" D E G |"G" G2 |]"B" B |"G" d2 e | d B G |$ d2 e | d B G | d B G |"Em" d B G | %18
"Am" e3/2 d/c/B/ |"D7" B A |] B/A/"^A3" |"G" G2 G |"D7" A3/2 G/ A |"G" B d B |"D7" A G A | %25
"G" B3/2 A/ G |"C" G E D |$"D7" D E G |"G" G2 |] %29
